packages/design-assets/icons/16px/Key.svg

<svg width="16" height="16" xmlns="http://www.w3.org/2000/svg"><path d="M12.7 0L6.5 6.3C6 6.1 5.5 6 5 6c-2.8 0-5 2.2-5 5s2.2 5 5 5 5-2.2 5-5c0-.5-.1-1.1-.3-1.6L11 8V6h2V4h2l1-1V0h-3.3zM4.5 12c-.8 0-1.5-.7-1.5-1.5S3.7 9 4.5 9 6 9.7 6 10.5 5.3 12 4.5 12z" fill="#818F99" fill-rule="evenodd"/></svg>

<?xml version="1.0" encoding="UTF-8"?>
<svg width="16px" height="16px" viewBox="0 0 16 16" version="1.1" xmlns="http://www.w3.org/2000/svg" xmlns:xlink="http://www.w3.org/1999/xlink">
    <!-- Generator: Sketch 54.1 (76490) - https://sketchapp.com -->
    <title>Icons/16px/Key</title>
    <desc>Created with Sketch.</desc>
    <g id="Icons/16px/Key" stroke="none" stroke-width="1" fill="none" fill-rule="evenodd">
        <path d="M12.7,0 L6.5,6.3 C6,6.1 5.5,6 5,6 C2.2,6 0,8.2 0,11 C0,13.8 2.2,16 5,16 C7.8,16 10,13.8 10,11 C10,10.5 9.9,9.9 9.7,9.4 L11,8 L11,6 L13,6 L13,4 L15,4 L16,3 L16,0 L12.7,0 Z M4.5,12 C3.7,12 3,11.3 3,10.5 C3,9.7 3.7,9 4.5,9 C5.3,9 6,9.7 6,10.5 C6,11.3 5.3,12 4.5,12 Z" id="i-16-key" fill="#818F99"></path>
    </g>
</svg>
